X:95
T:King Of The Pipers (j)
B:NFID.177a
095king_p
S:F&MB
N:According to NFID, this tune is played with a return to
Part B from part F. My suggestion for a final measure in
Part B is |GAG G3|.
L:1/8
M:6/8
R:jig
Q:320
K:G
A2F B2F|A2G FED|A2F B2F|G>AG GFE|
A2F B2F|A2G FED|G2B cAF|G>AG GFE:|
%B
d>fg age|d^cd ecA|G>AB cAF|G>AG GFE|
d>fg afa|geg fdA|G>AB cAF|G>AG GFE:|
%C
d2e d3|ded ^cBA|d2e d2A|GFG AFD|
d2e d3|ded ^cBA|G>AB cAF|G>AG GFE:|
%D
def def|def e^cA|def def|G>AG GFE|
def def|def e^cA|G>AB cAF|G>AG GFE:|
%E
D3D3|D3 ABc|D3D3|G>AG GFE|
D3D3|D3D3|G>AB cAF|G>AG GFE:|
%F
[e3A3][f3B3]|BAG FED|[e3A3][f3B3]|G>AG GFE|
[e3A3][f3B3]|BAG FED|G2B cAF|G>AG GFE:|

%%%

